X: 779
T: Gayrı Sen de Ol Biraz...
C: Ahmet Avni Konuk
O: Turkey
F: http://compmusic.upf.edu/node/140
N: saba--kupe--duyek--gayri--ahmet_avni_konuk
N: makam= saba
N: form= kupe
N: usul= duyek = 8/4
M: 8/4
L: 1/16
K: C _2/4B _3/4d  
Q: 1/4=57
%%MIDI tuningsystem comma53
z4 A2B2 A4 B4 c4 B2d2 B4 c4  | z4 c2d2 c4 d4 e2f2 e2g2 gffe f4  | 
w:  Gay *  *  rı  sen  *  *  de   |  ol  *  bi *  raz  *  *  *  ey   | 
z4 f2f2 f4 f4 e2f2 g2_7/8a2 g2f2 e2d2  | \
w:  bül *  *  bül_ i  *  *  *  gön  | 
c4 g2f2 f2.e2 e2d2 d2c2 B2{e}dc c6z2  | 
w:  *  lüm  *  *  *  hâ *  mûş    | 
z4 c2_2/4d2 c4 d4 e4 d2{g}fe e6z2  | \
w:  Vas *  *  fı nı  *  *  *  *  ol   | 
z4 c2d2 c4 d2e2 d2c2 c2d2 c2BA B2c2  | 
w:  gon *  *  ca *  nın  *  *  *  bâd_  | 
B4 A2G2 A4 B4 d2c2 {d}c2d2 c3B A2d2  | \
w:  *  ı  *  *  Sa bâ *  *  *  *  dan   | 
c4 B2c2 B4 A4 A2c4BA A6z2  | 
w:  *  ey *  *  le  gûş    | 
|


